web/images/layers2.svg

<svg enable-background="new 0 0 512.002 512.002" height="512" viewBox="0 0 512.002 512.002" width="512" xmlns="http://www.w3.org/2000/svg"><g fill="#4abaae"><path d="m500.563 119.845-235.313-117.656c-5.823-2.911-12.677-2.911-18.499 0l-235.314 117.656c-7.007 3.504-11.433 10.665-11.433 18.499s4.426 14.996 11.433 18.499l235.314 117.657c2.912 1.455 6.08 2.183 9.25 2.183 3.168 0 6.339-.728 9.249-2.183l235.314-117.657c7.007-3.504 11.433-10.664 11.433-18.499-.001-7.834-4.428-14.996-11.434-18.499zm-244.562 113.033-189.068-94.534 189.067-94.534 189.067 94.534z"/><path d="m509.814 364.409c-5.108-10.216-17.533-14.355-27.749-9.25l-226.064 113.031-226.065-113.032c-10.216-5.107-22.64-.965-27.748 9.25-5.109 10.217-.967 22.64 9.249 27.749l235.314 117.657c2.912 1.455 6.08 2.183 9.25 2.183 3.168 0 6.339-.728 9.25-2.182l235.314-117.657c10.216-5.11 14.357-17.533 9.249-27.749z"/><path d="m509.814 246.751c-5.108-10.216-17.533-14.357-27.749-9.249l-226.064 113.032-226.065-113.032c-10.216-5.108-22.64-.967-27.748 9.249-5.109 10.217-.967 22.64 9.249 27.749l235.314 117.657c2.912 1.455 6.08 2.183 9.25 2.183 3.168 0 6.339-.728 9.25-2.183l235.313-117.657c10.217-5.109 14.358-17.533 9.25-27.749z"/></g></svg>

<?xml version="1.0" encoding="iso-8859-1"?>
<!-- Generator: Adobe Illustrator 19.0.0, SVG Export Plug-In . SVG Version: 6.00 Build 0)  -->
<svg xmlns="http://www.w3.org/2000/svg" xmlns:xlink="http://www.w3.org/1999/xlink" version="1.1" id="Layer_1" x="0px" y="0px" viewBox="0 0 512.002 512.002" style="enable-background:new 0 0 512.002 512.002;" xml:space="preserve" width="512px" height="512px">
<g>
	<g>
		<path d="M500.563,119.845L265.25,2.189c-5.823-2.911-12.677-2.911-18.499,0L11.437,119.845    C4.43,123.349,0.004,130.51,0.004,138.344c0,7.834,4.426,14.996,11.433,18.499L246.751,274.5c2.912,1.455,6.08,2.183,9.25,2.183    c3.168,0,6.339-0.728,9.249-2.183l235.314-117.657c7.007-3.504,11.433-10.664,11.433-18.499    C511.996,130.51,507.569,123.348,500.563,119.845z M256.001,232.878L66.933,138.344l189.067-94.534l189.067,94.534    L256.001,232.878z" fill="#4abaae"/>
	</g>
</g>
<g>
	<g>
		<path d="M509.814,364.409c-5.108-10.216-17.533-14.355-27.749-9.25L256.001,468.19L29.936,355.158    c-10.216-5.107-22.64-0.965-27.748,9.25c-5.109,10.217-0.967,22.64,9.249,27.749l235.314,117.657    c2.912,1.455,6.08,2.183,9.25,2.183c3.168,0,6.339-0.728,9.25-2.182l235.314-117.657    C510.781,387.048,514.922,374.625,509.814,364.409z" fill="#4abaae"/>
	</g>
</g>
<g>
	<g>
		<path d="M509.814,246.751c-5.108-10.216-17.533-14.357-27.749-9.249L256.001,350.534L29.936,237.502    c-10.216-5.108-22.64-0.967-27.748,9.249c-5.109,10.217-0.967,22.64,9.249,27.749l235.314,117.657    c2.912,1.455,6.08,2.183,9.25,2.183c3.168,0,6.339-0.728,9.25-2.183L500.564,274.5    C510.781,269.391,514.922,256.967,509.814,246.751z" fill="#4abaae"/>
	</g>
</g>
<g>
</g>
<g>
</g>
<g>
</g>
<g>
</g>
<g>
</g>
<g>
</g>
<g>
</g>
<g>
</g>
<g>
</g>
<g>
</g>
<g>
</g>
<g>
</g>
<g>
</g>
<g>
</g>
<g>
</g>
</svg>
